X:2258
T:Svingedans
T:(FMK Ske 18-151)
R:Svingedans
S:John Enningers samling
O:Skönadal, Vollsjö, Skåne
B:Folkmusikkommissionen
Z:Åke Persson 2012-03-17
M:3/4
L:1/8
Q:1/4=108
K:G
|: de d2 B2 | gf g2 e2 | Ac e2 (FA) | GB d2 B2 | de d2 B2 | gf g2 e2 | d/f/a c'2 f2 | g2 g2 z2 :|
|: b2 a2 g2 | ag f2 e2 | d2 c2 c2 | GB d2 B2 | b2 a2 g2 | ag f2 e2 | d/f/a c'2 f2 | g2 g2 z2 :|
(:musicend:)
En lätt variant av ovanstående. Står utan förtecken i originalet men är uppenbarligen G.
Ser ut som samma nothand som ovanstående.

(:music:)
